dot_local/share/icons/Tela-dracula/scalable/apps/qtscrcpy.svg

<svg width="64" height="64" version="1.1" xmlns="http://www.w3.org/2000/svg">
 <path d="m22.463 13.2c-1.4885 0-2.9699 1.2771-2.6868 2.8l4.164 22.4-7.4621 15.553c-0.53112 1.0673-0.63063 1.7187-0.24139 2.6469 0.37156 0.88606 1.3317 1.4 2.3299 1.4h26.868c0.99818 0 1.9584-0.51394 2.3299-1.4 0.38924-0.92822 0.28974-1.5796-0.24139-2.6469l-7.4621-15.553 4.164-22.4c0.28312-1.5229-1.1983-2.8-2.6868-2.8h-9.5375z" fill="#cccccc"/>
 <path d="m4 44v3.2c0 1.5512 1.2488 2.8 2.8 2.8h50.4c1.5512 0 2.8-1.2488 2.8-2.8v-3.2z" fill="#e4e4e4"/>
 <path d="m6.8 6c-1.5512 0-2.8 1.2488-2.8 2.8v35.2h56v-35.2c0-1.5512-1.2488-2.8-2.8-2.8z" fill="#077063"/>
 <path d="m19.68 27.6-5.5797-7.5" fill="none" stroke="#30dd81" stroke-linecap="round" stroke-width="4.2"/>
 <path d="m44.32 27.6 5.5803-7.5" fill="none" stroke="#30dd81" stroke-linecap="round" stroke-width="4.2"/>
 <path d="m32.003 22c-11.489 0-20.93 8.7269-22 19.884-0.10105 2.1174 2.1341 2.1162 2.1341 2.1162h39.671s2.2993-4.62e-4 2.1878-2.2236c-1.1197-11.106-10.54-19.776-21.993-19.776z" fill="#30dd81"/>
 <path d="m21 32a3 3 0 0 1 3 3 3 3 0 0 1-3 3 3 3 0 0 1-3-3 3 3 0 0 1 3-3z" fill="#ffffff"/>
 <path d="m43 32a3 3 0 0 1 3 3 3 3 0 0 1-3 3 3 3 0 0 1-3-3 3 3 0 0 1 3-3z" fill="#ffffff"/>
</svg>

<svg xmlns="http://www.w3.org/2000/svg" width="64" height="64"><path fill="#ccc" d="M22.463 13.2c-1.488 0-2.97 1.277-2.687 2.8l4.164 22.4-7.462 15.553c-.531 1.067-.63 1.719-.241 2.647.371.886 1.331 1.4 2.33 1.4h26.868c.998 0 1.958-.514 2.33-1.4.389-.928.29-1.58-.242-2.647L40.061 38.4 44.225 16c.283-1.523-1.198-2.8-2.687-2.8h-9.537z"/><path fill="#e4e4e4" d="M4 44v3.2C4 48.751 5.249 50 6.8 50h50.4c1.551 0 2.8-1.249 2.8-2.8V44z"/><path fill="#077063" d="M6.8 6A2.794 2.794 0 0 0 4 8.8V44h56V8.8C60 7.249 58.751 6 57.2 6z"/><path fill="none" stroke="#30dd81" stroke-linecap="round" stroke-width="4.2" d="m19.68 27.6-5.58-7.5M44.32 27.6l5.58-7.5"/><path fill="#30dd81" d="M32.003 22c-11.489 0-20.93 8.727-22 19.884C9.902 44.001 12.137 44 12.137 44h39.671s2.3 0 2.188-2.223C52.876 30.67 43.456 22 32.003 22z"/><path fill="#fff" d="M21 32a3 3 0 0 1 3 3 3 3 0 0 1-3 3 3 3 0 0 1-3-3 3 3 0 0 1 3-3zM43 32a3 3 0 0 1 3 3 3 3 0 0 1-3 3 3 3 0 0 1-3-3 3 3 0 0 1 3-3z"/></svg>
